X:203
T: Ostergesang
N: A0554B
O: Europa, Mitteleuropa, Deutschland
N: Coelner Gsgb 1526 S. 204
R: Romanze, Ballade, Lied, religioeses Lied
M: 3/1
L: 1/2
K: F
f2 | f4f2 | e4e2 | f4d2 | c4
c2 | d3ef2 | e4d2 | c4B2 | A4
G2 | A4B2 | c4B2 | A2G4 | F4
B2 | A2G3F | F4E2 | F4

@@@ Tune index: 516
